Newaita-dark/devices/16/media-memory-sd.svg

<svg height="16pt" viewBox="0 0 16 16" width="16pt" xmlns="http://www.w3.org/2000/svg" xmlns:xlink="http://www.w3.org/1999/xlink"><linearGradient id="a" gradientUnits="userSpaceOnUse" x1="7.938261" x2="7.938261" y1="13.9911025" y2="14.65262443751"><stop offset="0" stop-opacity=".27451"/><stop offset="1" stop-opacity="0"/></linearGradient><linearGradient id="b"><stop offset="0" stop-opacity=".313725"/><stop offset=".222222" stop-opacity=".27451"/><stop offset="1" stop-opacity="0"/></linearGradient><radialGradient id="c" cx="450.90894" cy="189.57936" gradientTransform="matrix(.00000009 -.0390662 -.0703192 -.00000005 25.238422 31.771802)" gradientUnits="userSpaceOnUse" r="21.166656" xlink:href="#b"/><radialGradient id="d" cx="450.90894" cy="189.57936" gradientTransform="matrix(-.00000009 .0390662 .0703192 .00000005 -9.361906 -3.789605)" gradientUnits="userSpaceOnUse" r="21.166656" xlink:href="#b"/><radialGradient id="e" cx="450.90894" cy="189.57936" gradientTransform="matrix(-.00000009 -.0390662 .0703192 -.00000005 -9.361906 31.771802)" gradientUnits="userSpaceOnUse" r="21.166656" xlink:href="#b"/><radialGradient id="f" cx="450.90894" cy="189.57936" gradientTransform="matrix(.00000009 .0390662 -.0703192 .00000005 25.238421 -3.789605)" gradientUnits="userSpaceOnUse" r="21.166656" xlink:href="#b"/><linearGradient id="g" gradientUnits="userSpaceOnUse" x1="7.938262" x2="7.938262" y1="15.34001037502" y2=".125008"><stop offset="0" stop-color="#424242"/><stop offset="1" stop-color="#616161"/></linearGradient><linearGradient id="h" gradientUnits="userSpaceOnUse" x1="7.938262" x2="7.938262" y1="14.0169675" y2="1.44805256249"><stop offset="0" stop-color="#26a69a"/><stop offset="1" stop-color="#4db6ac"/></linearGradient><linearGradient id="i" gradientUnits="userSpaceOnUse" x1="7.9382592" x2="7.9382592" y1="14.01696629816" y2="2.44033747126"><stop offset="0" stop-color="#f44336"/><stop offset="1" stop-color="#ef5350"/></linearGradient><path d="m3.804688 14.003906h8.269531v.675782h-8.269531zm0 0" fill="url(#a)"/><path d="m12.074219 13.992188h1.320312v-.664063h-1.320312zm0 0" fill="url(#c)"/><path d="m3.804688 13.992188h-1.324219v.660156h1.324219zm0 0" fill="url(#d)"/><path d="m3.804688 13.992188h-1.324219v-.664063h1.324219zm0 0" fill="url(#e)"/><path d="m12.074219 13.992188h1.320312v.660156h-1.320312zm0 0" fill="url(#f)"/><path d="m5.953125 1.453125c-.175781 0-.339844.066406-.464844.191406l-2.644531 2.644531c-.125.125-.195312.292969-.195312.464844v.332032h.328124c.183594 0 .332032.148437.332032.332031v.992187c0 .183594-.148438.328125-.332032.328125h-.328124v6.617188c0 .363281.296874.660156.660156.660156h9.261718c.363282 0 .65625-.296875.65625-.660156v-4.628907h-.328124c-.183594 0-.328126-.148437-.328126-.332031v-3.640625c0-.179687.144532-.328125.328126-.328125h.328124v-2.316406c0-.363281-.292968-.65625-.65625-.65625zm0 0" fill="url(#g)"/><path d="m2.648438 13.132812v.222657c0 .363281.296874.660156.660156.660156h9.261718c.363282 0 .65625-.296875.65625-.660156v-.222657c0 .363282-.292968.65625-.65625.65625h-9.261718c-.363282 0-.660156-.292968-.660156-.65625zm0 0" fill-opacity=".235294"/><path d="m6.613281 2.445312c-.171875 0-.339843.066407-.464843.191407l-1.984376 1.984375c-.121093.125-.191406.289062-.191406.464844v7.277343c0 .363281.292969.660157.65625.660157h6.617188c.363281 0 .65625-.296876.65625-.660157v-9.261719c0-.363281-.292969-.65625-.65625-.65625zm0 0" fill="url(#h)"/><path d="m6.613281 2.445312c-.171875 0-.339843.066407-.464843.191407l-1.984376 1.984375c-.121093.125-.191406.289062-.191406.464844v.992187h7.929688v-2.976563c0-.363281-.292969-.65625-.65625-.65625zm0 0" fill="url(#i)"/><path d="m211.604793-136.757472c-5.499475 0-10.873962 2.124797-14.87358 6.124415l-63.493937 63.493937c-3.87463 3.999618-6.124415 9.249117-6.124415 14.87358v232.852763c0 11.62389 9.374105 21.122983 20.997995 21.122983h211.729781c11.62389 0 20.997995-9.499093 20.997995-21.122983v-296.3467c0-11.62389-9.374105-20.997995-20.997995-20.997995zm0 0" fill="none" stroke="#212121" stroke-linecap="round" stroke-linejoin="round" stroke-width="3" transform="matrix(.031253 0 0 .031253 0 6.719392)"/><path d="m5.953125 1.453125c-.175781 0-.339844.066406-.464844.191406l-2.644531 2.644531c-.125.125-.195312.292969-.195312.464844v.167969c0-.175781.070312-.34375.195312-.464844l2.644531-2.648437c.125-.121094.289063-.191406.464844-.191406h6.617187c.363282 0 .65625.292968.65625.65625v-.164063c0-.363281-.292968-.65625-.65625-.65625zm-2.644531 4.957031c0 .183594-.148438.328125-.332032.328125h-.328124v.167969h.328124c.183594 0 .332032-.148438.332032-.332031zm9.261718 1.984375v.164063c0 .183594.144532.332031.328126.332031h.328124v-.164063h-.328124c-.183594 0-.328126-.148437-.328126-.332031zm0 0" fill="#fff" fill-opacity=".313725"/><g fill="none" stroke="#212121" stroke-linecap="round" stroke-linejoin="round" stroke-width="11.338583" transform="scale(.00826902)"><path d="m719.931259 175.731252c-21.257813 0-41.098438 8.030729-56.215105 23.147396l-319.811983 319.811984c-15.116667 15.116666-23.619792 35.429687-23.619792 56.215104v40.153647h39.681251c22.202604 0 40.153646 17.951042 40.153646 40.153646v119.988543c0 22.202605-17.951042 39.681251-40.153646 39.681251h-39.681251v800.238552c0 43.932813 35.902084 79.834896 79.834897 79.834896h1120.050535c43.932813 0 79.362501-35.902083 79.362501-79.834896v-559.78907h-39.681251c-22.202604 0-39.68125-17.951042-39.68125-40.153646v-440.272923c0-21.730208 17.478646-39.68125 39.68125-39.68125h39.681251v-280.130733c0-43.932813-35.429688-79.362501-79.362501-79.362501zm0 0"/><path d="m799.766156 295.719795c-20.785417 0-41.098438 8.03073-56.215105 23.147397l-239.977086 239.977086c-14.644271 15.116667-23.147396 34.957292-23.147396 56.215105v119.988543h958.963553v-359.96563c0-43.932813-35.429688-79.362501-79.362501-79.362501zm0 0"/></g></svg>

<?xml version="1.0" encoding="UTF-8"?>
<svg xmlns="http://www.w3.org/2000/svg" xmlns:xlink="http://www.w3.org/1999/xlink" width="16pt" height="16pt" viewBox="0 0 16 16" version="1.1">
<defs>
<linearGradient id="linear0" gradientUnits="userSpaceOnUse" x1="254" y1="233.5" x2="254" y2="254.66667" gradientTransform="matrix(0.031253,0,0,0.031253,-0.00000125012,6.693527)">
<stop offset="0" style="stop-color:rgb(0%,0%,0%);stop-opacity:0.27451;"/>
<stop offset="1" style="stop-color:rgb(0%,0%,0%);stop-opacity:0;"/>
</linearGradient>
<radialGradient id="radial0" gradientUnits="userSpaceOnUse" cx="450.90894" cy="189.57936" fx="450.90894" fy="189.57936" r="21.166656" gradientTransform="matrix(0.0000000870852,-0.0390662,-0.0703192,-0.0000000507693,25.238422,31.771802)">
<stop offset="0" style="stop-color:rgb(0%,0%,0%);stop-opacity:0.313725;"/>
<stop offset="0.222222" style="stop-color:rgb(0%,0%,0%);stop-opacity:0.27451;"/>
<stop offset="1" style="stop-color:rgb(0%,0%,0%);stop-opacity:0;"/>
</radialGradient>
<radialGradient id="radial1" gradientUnits="userSpaceOnUse" cx="450.90894" cy="189.57936" fx="450.90894" fy="189.57936" r="21.166656" gradientTransform="matrix(-0.0000000870852,0.0390662,0.0703192,0.0000000507693,-9.361906,-3.789605)">
<stop offset="0" style="stop-color:rgb(0%,0%,0%);stop-opacity:0.313725;"/>
<stop offset="0.222222" style="stop-color:rgb(0%,0%,0%);stop-opacity:0.27451;"/>
<stop offset="1" style="stop-color:rgb(0%,0%,0%);stop-opacity:0;"/>
</radialGradient>
<radialGradient id="radial2" gradientUnits="userSpaceOnUse" cx="450.90894" cy="189.57936" fx="450.90894" fy="189.57936" r="21.166656" gradientTransform="matrix(-0.0000000870852,-0.0390662,0.0703192,-0.0000000507693,-9.361906,31.771802)">
<stop offset="0" style="stop-color:rgb(0%,0%,0%);stop-opacity:0.313725;"/>
<stop offset="0.222222" style="stop-color:rgb(0%,0%,0%);stop-opacity:0.27451;"/>
<stop offset="1" style="stop-color:rgb(0%,0%,0%);stop-opacity:0;"/>
</radialGradient>
<radialGradient id="radial3" gradientUnits="userSpaceOnUse" cx="450.90894" cy="189.57936" fx="450.90894" fy="189.57936" r="21.166656" gradientTransform="matrix(0.0000000870852,0.0390662,-0.0703192,0.0000000507693,25.238421,-3.789605)">
<stop offset="0" style="stop-color:rgb(0%,0%,0%);stop-opacity:0.313725;"/>
<stop offset="0.222222" style="stop-color:rgb(0%,0%,0%);stop-opacity:0.27451;"/>
<stop offset="1" style="stop-color:rgb(0%,0%,0%);stop-opacity:0;"/>
</radialGradient>
<linearGradient id="linear1" gradientUnits="userSpaceOnUse" x1="254" y1="275.83334" x2="254" y2="-211" gradientTransform="matrix(0.031253,0,0,0.031253,0,6.719391)">
<stop offset="0" style="stop-color:rgb(25.882353%,25.882353%,25.882353%);stop-opacity:1;"/>
<stop offset="1" style="stop-color:rgb(38.039216%,38.039216%,38.039216%);stop-opacity:1;"/>
</linearGradient>
<linearGradient id="linear2" gradientUnits="userSpaceOnUse" x1="254" y1="233.5" x2="254" y2="-168.66667" gradientTransform="matrix(0.031253,0,0,0.031253,0,6.719392)">
<stop offset="0" style="stop-color:rgb(14.901961%,65.098039%,60.392157%);stop-opacity:1;"/>
<stop offset="1" style="stop-color:rgb(30.196078%,71.372549%,67.45098%);stop-opacity:1;"/>
</linearGradient>
<linearGradient id="linear3" gradientUnits="userSpaceOnUse" x1="960" y1="1695.1182" x2="960" y2="295.1181" gradientTransform="matrix(0.00826902,0,0,0.00826902,0,0)">
<stop offset="0" style="stop-color:rgb(95.686275%,26.27451%,21.176471%);stop-opacity:1;"/>
<stop offset="1" style="stop-color:rgb(93.72549%,32.54902%,31.372549%);stop-opacity:1;"/>
</linearGradient>
</defs>
<g id="surface1">
<path style=" stroke:none;fill-rule:nonzero;fill:url(#linear0);" d="M 3.804688 14.003906 L 12.074219 14.003906 L 12.074219 14.679688 L 3.804688 14.679688 Z M 3.804688 14.003906 "/>
<path style=" stroke:none;fill-rule:nonzero;fill:url(#radial0);" d="M 12.074219 13.992188 L 13.394531 13.992188 L 13.394531 13.328125 L 12.074219 13.328125 Z M 12.074219 13.992188 "/>
<path style=" stroke:none;fill-rule:nonzero;fill:url(#radial1);" d="M 3.804688 13.992188 L 2.480469 13.992188 L 2.480469 14.652344 L 3.804688 14.652344 Z M 3.804688 13.992188 "/>
<path style=" stroke:none;fill-rule:nonzero;fill:url(#radial2);" d="M 3.804688 13.992188 L 2.480469 13.992188 L 2.480469 13.328125 L 3.804688 13.328125 Z M 3.804688 13.992188 "/>
<path style=" stroke:none;fill-rule:nonzero;fill:url(#radial3);" d="M 12.074219 13.992188 L 13.394531 13.992188 L 13.394531 14.652344 L 12.074219 14.652344 Z M 12.074219 13.992188 "/>
<path style=" stroke:none;fill-rule:nonzero;fill:url(#linear1);" d="M 5.953125 1.453125 C 5.777344 1.453125 5.613281 1.519531 5.488281 1.644531 L 2.84375 4.289062 C 2.71875 4.414062 2.648438 4.582031 2.648438 4.753906 L 2.648438 5.085938 L 2.976562 5.085938 C 3.160156 5.085938 3.308594 5.234375 3.308594 5.417969 L 3.308594 6.410156 C 3.308594 6.59375 3.160156 6.738281 2.976562 6.738281 L 2.648438 6.738281 L 2.648438 13.355469 C 2.648438 13.71875 2.945312 14.015625 3.308594 14.015625 L 12.570312 14.015625 C 12.933594 14.015625 13.226562 13.71875 13.226562 13.355469 L 13.226562 8.726562 L 12.898438 8.726562 C 12.714844 8.726562 12.570312 8.578125 12.570312 8.394531 L 12.570312 4.753906 C 12.570312 4.574219 12.714844 4.425781 12.898438 4.425781 L 13.226562 4.425781 L 13.226562 2.109375 C 13.226562 1.746094 12.933594 1.453125 12.570312 1.453125 Z M 5.953125 1.453125 "/>
<path style=" stroke:none;fill-rule:nonzero;fill:rgb(0%,0%,0%);fill-opacity:0.235294;" d="M 2.648438 13.132812 L 2.648438 13.355469 C 2.648438 13.71875 2.945312 14.015625 3.308594 14.015625 L 12.570312 14.015625 C 12.933594 14.015625 13.226562 13.71875 13.226562 13.355469 L 13.226562 13.132812 C 13.226562 13.496094 12.933594 13.789062 12.570312 13.789062 L 3.308594 13.789062 C 2.945312 13.789062 2.648438 13.496094 2.648438 13.132812 Z M 2.648438 13.132812 "/>
<path style=" stroke:none;fill-rule:nonzero;fill:url(#linear2);" d="M 6.613281 2.445312 C 6.441406 2.445312 6.273438 2.511719 6.148438 2.636719 L 4.164062 4.621094 C 4.042969 4.746094 3.972656 4.910156 3.972656 5.085938 L 3.972656 12.363281 C 3.972656 12.726562 4.265625 13.023438 4.628906 13.023438 L 11.246094 13.023438 C 11.609375 13.023438 11.902344 12.726562 11.902344 12.363281 L 11.902344 3.101562 C 11.902344 2.738281 11.609375 2.445312 11.246094 2.445312 Z M 6.613281 2.445312 "/>
<path style=" stroke:none;fill-rule:nonzero;fill:url(#linear3);" d="M 6.613281 2.445312 C 6.441406 2.445312 6.273438 2.511719 6.148438 2.636719 L 4.164062 4.621094 C 4.042969 4.746094 3.972656 4.910156 3.972656 5.085938 L 3.972656 6.078125 L 11.902344 6.078125 L 11.902344 3.101562 C 11.902344 2.738281 11.609375 2.445312 11.246094 2.445312 Z M 6.613281 2.445312 "/>
<path style="fill:none;stroke-width:3;stroke-linecap:round;stroke-linejoin:round;stroke:rgb(12.941176%,12.941176%,12.941176%);stroke-opacity:1;stroke-miterlimit:4;" d="M 211.604793 -136.757472 C 206.105318 -136.757472 200.730831 -134.632675 196.731213 -130.633057 L 133.237276 -67.13912 C 129.362646 -63.139502 127.112861 -57.890003 127.112861 -52.26554 L 127.112861 180.587223 C 127.112861 192.211113 136.486966 201.710206 148.110856 201.710206 L 359.840637 201.710206 C 371.464527 201.710206 380.838632 192.211113 380.838632 180.587223 L 380.838632 -115.759477 C 380.838632 -127.383367 371.464527 -136.757472 359.840637 -136.757472 Z M 211.604793 -136.757472 " transform="matrix(0.031253,0,0,0.031253,0,6.719392)"/>
<path style=" stroke:none;fill-rule:nonzero;fill:rgb(100%,100%,100%);fill-opacity:0.313725;" d="M 5.953125 1.453125 C 5.777344 1.453125 5.613281 1.519531 5.488281 1.644531 L 2.84375 4.289062 C 2.71875 4.414062 2.648438 4.582031 2.648438 4.753906 L 2.648438 4.921875 C 2.648438 4.746094 2.71875 4.578125 2.84375 4.457031 L 5.488281 1.808594 C 5.613281 1.6875 5.777344 1.617188 5.953125 1.617188 L 12.570312 1.617188 C 12.933594 1.617188 13.226562 1.910156 13.226562 2.273438 L 13.226562 2.109375 C 13.226562 1.746094 12.933594 1.453125 12.570312 1.453125 Z M 3.308594 6.410156 C 3.308594 6.59375 3.160156 6.738281 2.976562 6.738281 L 2.648438 6.738281 L 2.648438 6.90625 L 2.976562 6.90625 C 3.160156 6.90625 3.308594 6.757812 3.308594 6.574219 Z M 12.570312 8.394531 L 12.570312 8.558594 C 12.570312 8.742188 12.714844 8.890625 12.898438 8.890625 L 13.226562 8.890625 L 13.226562 8.726562 L 12.898438 8.726562 C 12.714844 8.726562 12.570312 8.578125 12.570312 8.394531 Z M 12.570312 8.394531 "/>
<path style="fill:none;stroke-width:11.338583;stroke-linecap:round;stroke-linejoin:round;stroke:rgb(12.941176%,12.941176%,12.941176%);stroke-opacity:1;stroke-miterlimit:4;" d="M 719.931259 175.731252 C 698.673446 175.731252 678.832821 183.761981 663.716154 198.878648 L 343.904171 518.690632 C 328.787504 533.807298 320.284379 554.120319 320.284379 574.905736 L 320.284379 615.059383 L 359.96563 615.059383 C 382.168234 615.059383 400.119276 633.010425 400.119276 655.213029 L 400.119276 775.201572 C 400.119276 797.404177 382.168234 814.882823 359.96563 814.882823 L 320.284379 814.882823 L 320.284379 1615.121375 C 320.284379 1659.054188 356.186463 1694.956271 400.119276 1694.956271 L 1520.169811 1694.956271 C 1564.102624 1694.956271 1599.532312 1659.054188 1599.532312 1615.121375 L 1599.532312 1055.332305 L 1559.851061 1055.332305 C 1537.648457 1055.332305 1520.169811 1037.381263 1520.169811 1015.178659 L 1520.169811 574.905736 C 1520.169811 553.175528 1537.648457 535.224486 1559.851061 535.224486 L 1599.532312 535.224486 L 1599.532312 255.093753 C 1599.532312 211.16094 1564.102624 175.731252 1520.169811 175.731252 Z M 719.931259 175.731252 " transform="matrix(0.00826902,0,0,0.00826902,0,0)"/>
<path style="fill:none;stroke-width:11.338583;stroke-linecap:round;stroke-linejoin:round;stroke:rgb(12.941176%,12.941176%,12.941176%);stroke-opacity:1;stroke-miterlimit:4;" d="M 799.766156 295.719795 C 778.980739 295.719795 758.667718 303.750525 743.551051 318.867192 L 503.573965 558.844278 C 488.929694 573.960945 480.426569 593.80157 480.426569 615.059383 L 480.426569 735.047926 L 1439.390122 735.047926 L 1439.390122 375.082296 C 1439.390122 331.149483 1403.960434 295.719795 1360.027621 295.719795 Z M 799.766156 295.719795 " transform="matrix(0.00826902,0,0,0.00826902,0,0)"/>
</g>
</svg>
